Papirus-Adapta/16x16/actions/cm_markplus.svg

<svg xmlns="http://www.w3.org/2000/svg" width="16" height="16" version="1.1" viewBox="0 0 16 16">
 <defs>
  <style id="current-color-scheme" type="text/css">
   .ColorScheme-Text { color:#414c52; } .ColorScheme-Highlight { color:#00b4cb; }
  </style>
 </defs>
 <path style="fill:currentColor" class="ColorScheme-Text" d="m 2,2 v 12 h 4 1 2 2 3 V 2 Z m 2,2 h 8 V 6 H 4 Z m 3,3 h 2 v 2 h 2 v 2 H 9 v 2 H 7 V 11 H 5 V 9 h 2 z"/>
</svg>

<svg xmlns="http://www.w3.org/2000/svg" width="16" height="16" version="1.1">
 <defs>
  <style id="current-color-scheme" type="text/css">
   .ColorScheme-Text { color:#444444; } .ColorScheme-Highlight { color:#4285f4; } .ColorScheme-NeutralText { color:#ff9800; } .ColorScheme-PositiveText { color:#4caf50; } .ColorScheme-NegativeText { color:#f44336; }
  </style>
 </defs>
 <path style="fill:currentColor" class="ColorScheme-Text" d="M 2,2 V 14 H 14 V 2 Z M 4,4 H 12 V 6 H 4 Z M 7,7 H 9 V 9 H 11 V 11 H 9 V 13 H 7 V 11 H 5 V 9 H 7 Z"/>
</svg>
